dist/img/svg/whatsapp.svg

<svg width="17" height="17" viewBox="0 0 17 17" fill="none" xmlns="http://www.w3.org/2000/svg">
<path fill-rule="evenodd" clip-rule="evenodd" d="M8.15494 16.1798H8.1516C6.79813 16.1792 5.46822 15.8397 4.28704 15.1954L0 16.32L1.14728 12.1294C0.439583 10.903 0.0671953 9.51178 0.0678017 8.08647C0.0695753 3.62763 3.6974 0 8.15486 0C10.3182 0.000933867 12.3487 0.84313 13.8756 2.37174C15.4023 3.90026 16.2428 5.93206 16.2419 8.09285C16.24 12.5506 12.6137 16.178 8.15494 16.1798ZM4.48565 13.7314L4.7311 13.8771C5.7631 14.4894 6.94608 14.8136 8.15222 14.814H8.15494C11.8597 14.814 14.8749 11.7987 14.8764 8.09238C14.8771 6.29636 14.1786 4.60761 12.9096 3.3371C11.6405 2.06657 9.95292 1.36654 8.15758 1.36591C4.44999 1.36591 1.43467 4.38097 1.4332 8.08694C1.43268 9.35701 1.78805 10.5939 2.46089 11.664L2.62071 11.9184L1.94167 14.3988L4.48565 13.7314ZM11.9524 9.83396C12.0933 9.90208 12.1885 9.94807 12.2291 10.0159C12.2796 10.1002 12.2796 10.5047 12.1113 10.9768C11.9429 11.4488 11.1356 11.8796 10.7473 11.9376C10.3992 11.9896 9.95868 12.0113 9.47464 11.8575C9.18114 11.7645 8.8048 11.6401 8.3227 11.4318C6.42836 10.6139 5.14818 8.77788 4.90623 8.43089C4.88928 8.40658 4.87742 8.38958 4.87082 8.38074L4.86918 8.37856C4.76224 8.23589 4.04573 7.27987 4.04573 6.29044C4.04573 5.35967 4.50294 4.8718 4.71338 4.64724C4.72781 4.63185 4.74107 4.61771 4.75294 4.60473C4.93816 4.40243 5.15708 4.35186 5.29178 4.35186C5.42648 4.35186 5.56133 4.35311 5.67906 4.35901C5.69359 4.35975 5.7087 4.35966 5.72432 4.35957C5.84207 4.35888 5.98888 4.35802 6.1337 4.70588C6.18942 4.83976 6.27095 5.03824 6.35693 5.24758C6.5308 5.67088 6.72291 6.13857 6.75671 6.20626C6.80724 6.30739 6.8409 6.42535 6.77356 6.56028C6.76345 6.5805 6.75409 6.59959 6.74516 6.61784C6.69456 6.72112 6.65736 6.79708 6.5715 6.89734C6.53773 6.93676 6.50284 6.97926 6.46794 7.02175C6.39842 7.10641 6.32892 7.19107 6.26839 7.25136C6.16722 7.35212 6.06193 7.46145 6.17979 7.66375C6.29767 7.86605 6.7032 8.52772 7.3039 9.06354C7.94964 9.63951 8.51086 9.88295 8.79533 10.0063C8.85089 10.0304 8.89588 10.05 8.9289 10.0665C9.13088 10.1677 9.24876 10.1507 9.36664 10.0159C9.48451 9.88105 9.87176 9.42585 10.0064 9.2236C10.1411 9.02137 10.2759 9.05505 10.4611 9.12246C10.6463 9.18996 11.6398 9.67873 11.8418 9.77987C11.8814 9.79962 11.9182 9.81744 11.9524 9.83396Z" fill="currentColor"/>
</svg>

<svg width="17" height="17" viewBox="0 0 17 17" fill="none" xmlns="http://www.w3.org/2000/svg"><path fill-rule="evenodd" clip-rule="evenodd" d="M8.155 16.18h-.003a8.081 8.081 0 01-3.865-.985L0 16.32l1.147-4.19a8.072 8.072 0 01-1.08-4.044C.07 3.628 3.698 0 8.156 0c2.163 0 4.194.843 5.72 2.372a8.038 8.038 0 012.367 5.72c-.002 4.459-3.628 8.086-8.087 8.088zm-3.67-2.449l.246.146a6.712 6.712 0 003.421.937h.003c3.705 0 6.72-3.015 6.721-6.722a6.681 6.681 0 00-1.966-4.755 6.676 6.676 0 00-4.752-1.971 6.731 6.731 0 00-6.725 6.72 6.71 6.71 0 001.028 3.578l.16.254-.68 2.48 2.545-.667zm7.467-3.897c.141.068.236.114.277.182.05.084.05.489-.118.96-.168.473-.975.904-1.364.962a2.77 2.77 0 01-1.272-.08c-.294-.094-.67-.218-1.152-.426-1.895-.818-3.175-2.654-3.417-3.001a2.545 2.545 0 00-.035-.05l-.002-.002c-.107-.143-.823-1.1-.823-2.089 0-.93.457-1.418.667-1.643l.04-.042a.742.742 0 01.539-.253c.134 0 .27.001.387.007h.045c.118 0 .265-.001.41.347l.223.542c.174.423.366.89.4.958.05.101.084.22.017.354l-.029.058c-.05.103-.088.18-.173.28-.034.039-.07.081-.104.124-.07.084-.14.17-.2.23-.1.1-.206.21-.088.412.118.202.523.864 1.124 1.4a5.21 5.21 0 001.491.942l.134.06c.202.102.32.085.438-.05s.505-.59.64-.792c.134-.203.269-.169.454-.102.185.068 1.179.557 1.38.658l.111.054z" fill="currentColor"/></svg>
